public/assets/separator-accent.svg

<svg width="169" height="26" viewBox="0 0 169 26" fill="none" xmlns="http://www.w3.org/2000/svg">
<path d="M1 12.4375L61 12.4375Z" fill="#C7A17A"/>
<path d="M1 12.4375L61 12.4375" stroke="#C7A17A" stroke-width="0.975064" stroke-miterlimit="10" stroke-linecap="round"/>
<path d="M167.996 12.3828L107.996 12.3828Z" fill="#C7A17A"/>
<path d="M167.996 12.3828L107.996 12.3828" stroke="#C7A17A" stroke-width="0.975064" stroke-miterlimit="10" stroke-linecap="round"/>
<path d="M75.246 8.2761C73.0853 9.81943 72.4947 13.8558 73.9572 17.7586C75.3875 21.5757 78.3353 24.0905 80.9405 23.9946C80.0189 22.1879 79.2691 19.5342 78.2461 15.7602C77.2017 11.7984 76.1194 9.56284 75.246 8.2761Z" fill="#C7A17A"/>
<path d="M79.6675 15.3812C80.7922 19.5573 81.5957 22.0931 82.4048 23.5996C84.9514 22.3029 85.7243 18.1004 84.1654 13.9403C82.6386 9.86586 79.38 7.17409 76.6459 7.70951C77.7498 9.3501 78.757 11.9073 79.6675 15.3812Z" fill="#C7A17A"/>
<path d="M95.7022 2.01522C93.4264 1.4031 90.3257 3.27235 88.4733 6.47434C86.6616 9.60595 86.598 13.0443 88.1316 14.7769C88.8514 13.1269 90.2486 11.1175 92.2604 8.2895C94.3887 5.34109 95.312 3.33923 95.7022 2.01522Z" fill="#C7A17A"/>
<path d="M93.3194 9.04464C91.0892 12.169 89.8031 14.1487 89.2258 15.5524C91.5499 16.5682 94.8673 14.7303 96.8418 11.3172C98.7756 7.97449 98.7855 4.22319 96.8778 2.64998C96.3748 4.33138 95.1886 6.46293 93.3194 9.04464Z" fill="#C7A17A"/>
</svg>

<svg version="1.2" xmlns="http://www.w3.org/2000/svg" viewBox="0 0 169 26" width="169" height="26"><style>.a{fill:#ff5e29}.b{fill:#ff5e29;stroke:#c7a17a;stroke-linecap:round;stroke-miterlimit:10;stroke-width:1}</style><path class="a" d="m1 12.4h60z"/><path class="a" d="m168 12.4h-60z"/><path fill-rule="evenodd" class="b" d="m1 12.4h60"/><path fill-rule="evenodd" class="b" d="m168 12.4h-60"/><path class="a" d="m75.2 8.3c-2.1 1.5-2.7 5.6-1.2 9.5 1.4 3.8 4.3 6.3 6.9 6.2-0.9-1.8-1.6-4.5-2.7-8.2-1-4-2.1-6.2-3-7.5z"/><path class="a" d="m79.7 15.4c1.1 4.2 1.9 6.7 2.7 8.2 2.6-1.3 3.3-5.5 1.8-9.7-1.6-4-4.8-6.7-7.6-6.2q1.7 2.5 3.1 7.7z"/><path class="a" d="m95.7 2c-2.3-0.6-5.4 1.3-7.2 4.5-1.8 3.1-1.9 6.5-0.4 8.3 0.8-1.7 2.1-3.7 4.2-6.5 2.1-3 3-5 3.4-6.3z"/><path class="a" d="m93.3 9c-2.2 3.2-3.5 5.1-4.1 6.6 2.3 1 5.7-0.9 7.6-4.3 2-3.3 2-7.1 0.1-8.7q-0.8 2.6-3.6 6.4z"/></svg>
